<?xml version="1.0" encoding="UTF-8"?>
<map version="1.10" tiledversion="1.12.2" orientation="orthogonal" renderorder="right-down" width="64" height="32" tilewidth="16" tileheight="16" infinite="0" nextlayerid="5" nextobjectid="20">
 <tileset firstgid="1" source="ts_jungle2.tsx"/>
 <layer id="1" name="layer_fg" width="64" height="32">
  <data encoding="csv">
0,0,0,0,0,0,0,0,0,0,0,0,0,0,0,0,0,0,0,0,0,0,0,0,0,0,0,0,0,0,0,0,0,0,0,0,0,0,0,0,0,0,0,0,0,0,0,0,0,0,0,0,0,0,0,0,0,0,0,0,0,0,0,0,
0,0,0,0,0,0,0,0,0,0,0,0,0,0,0,0,0,0,0,0,0,0,0,0,0,0,0,0,0,0,0,0,0,0,0,0,0,0,0,0,0,0,0,0,0,0,0,0,0,0,0,0,0,0,0,0,0,0,0,0,0,0,0,0,
0,0,0,0,0,0,0,0,0,0,0,0,0,0,0,0,0,0,0,0,0,0,0,0,0,0,0,0,0,0,0,0,0,0,0,0,0,0,0,0,0,0,0,0,0,0,0,0,0,0,0,0,0,0,0,0,0,0,0,0,0,0,0,0,
0,0,0,0,0,0,0,0,0,0,0,0,0,0,0,0,0,0,0,0,0,0,0,0,0,0,0,0,0,0,0,0,0,0,0,0,0,0,0,0,0,0,0,0,0,0,0,0,0,0,0,0,0,0,0,0,0,0,0,0,0,0,0,0,
0,0,0,0,0,0,0,0,0,0,0,0,0,0,0,0,0,0,0,0,0,0,0,0,0,0,0,0,0,0,0,0,0,0,0,0,0,0,0,0,0,0,0,0,0,0,0,0,0,0,0,0,0,0,0,0,0,0,0,0,0,0,0,0,
0,0,0,0,0,0,0,0,0,0,0,0,0,0,0,0,0,0,0,0,0,0,0,0,0,0,0,0,0,0,0,0,0,0,0,0,0,0,0,0,0,0,0,0,0,0,0,0,0,0,0,0,0,0,0,0,0,0,0,0,0,0,0,0,
0,0,0,0,0,0,0,0,0,0,0,0,0,0,0,0,0,0,0,0,0,0,0,0,0,0,0,0,0,0,0,0,0,0,0,0,0,0,0,0,0,0,0,0,0,0,0,0,0,0,0,0,0,0,0,0,0,0,0,0,0,0,0,0,
0,0,0,0,0,0,0,0,0,0,0,0,0,0,0,0,0,0,0,0,0,0,0,0,0,0,0,0,0,0,0,0,0,0,0,0,0,0,0,0,0,0,0,0,0,0,0,0,0,0,0,0,0,0,0,0,0,0,0,0,0,0,0,0,
0,0,0,0,0,0,0,0,0,0,0,0,0,0,0,0,0,0,0,0,0,0,0,0,0,0,0,0,0,0,0,0,0,0,0,0,0,0,0,0,0,0,0,0,0,0,0,0,0,0,0,0,0,0,0,0,0,0,0,0,0,0,0,0,
0,0,0,0,0,0,0,0,0,0,0,0,0,0,0,0,0,0,0,0,0,0,0,0,0,0,0,0,0,0,0,0,0,0,0,0,0,0,0,0,0,0,0,0,0,0,0,0,0,0,0,0,0,0,0,0,0,0,0,0,0,0,0,0,
0,0,0,0,0,0,0,0,0,0,0,0,0,0,0,0,0,0,0,0,0,0,0,0,0,0,0,0,0,0,0,0,0,0,0,0,0,0,0,0,0,0,0,0,0,0,0,0,0,0,0,0,0,0,0,0,0,0,0,0,0,0,0,0,
0,0,0,0,0,0,0,0,0,0,0,0,0,0,0,0,0,0,0,0,0,0,0,0,0,0,0,0,0,0,0,0,0,0,0,0,0,0,0,0,0,0,0,0,0,0,0,0,0,0,0,0,0,0,0,0,0,0,0,0,0,0,0,0,
0,0,0,0,0,0,0,0,0,0,0,0,0,0,0,0,0,0,0,0,0,0,0,0,0,0,0,0,0,0,0,0,0,0,0,0,0,0,0,0,0,0,0,0,0,0,0,0,0,0,0,0,0,0,0,0,0,0,0,0,0,0,0,0,
0,0,0,0,0,0,0,0,0,0,0,0,0,0,0,0,0,0,0,0,0,0,0,0,0,0,0,0,0,0,0,0,0,0,0,0,0,0,0,0,0,0,0,0,0,0,0,0,0,0,0,0,0,0,0,0,0,0,0,0,0,0,0,0,
0,0,0,0,0,0,0,0,0,0,0,0,0,0,0,0,0,0,0,0,0,0,0,0,0,0,0,0,0,0,0,0,0,0,0,0,0,0,0,0,0,0,0,0,0,0,0,0,0,0,0,0,0,0,0,0,0,0,0,0,0,0,0,0,
0,0,0,0,0,0,0,0,0,0,0,0,0,0,0,0,0,0,0,0,0,0,0,0,0,0,0,0,0,0,0,0,0,0,0,0,0,0,0,0,0,0,0,0,0,0,0,0,0,0,0,0,0,0,0,0,0,0,0,0,0,0,0,0,
0,0,0,0,0,0,0,0,0,0,0,0,0,0,0,0,0,0,0,0,0,0,0,0,0,0,0,0,0,0,0,0,0,0,0,0,0,0,0,0,0,0,0,0,0,0,0,0,0,0,0,0,0,0,0,0,0,0,0,0,0,0,0,0,
0,0,0,0,0,0,0,0,0,0,0,0,0,0,33,0,43,44,0,0,38,0,0,0,0,0,0,0,0,0,36,37,37,37,37,37,37,37,2147483684,0,0,0,0,0,0,0,0,0,0,0,0,0,0,0,0,0,0,0,0,0,0,0,0,0,
0,0,0,0,0,0,0,0,0,0,0,0,0,0,36,37,37,37,37,37,37,37,2147483684,0,0,0,0,0,0,0,0,0,0,45,0,2147483693,0,0,0,0,0,0,0,0,0,0,0,0,0,0,0,0,0,0,0,0,0,0,0,0,0,0,0,0,
0,0,0,0,0,0,0,0,0,0,0,0,0,0,0,0,51,52,0,0,0,0,0,0,0,0,0,0,0,0,0,0,0,53,3221225509,2147483701,0,0,17,18,19,0,0,0,0,0,0,0,0,0,0,0,0,0,0,0,0,0,0,0,0,0,0,0,
0,0,0,0,0,0,0,0,0,0,0,0,0,0,0,0,51,52,0,0,0,0,0,0,0,0,0,0,0,0,0,0,0,36,3221225509,3221225508,0,0,25,26,27,0,0,0,0,0,0,0,0,0,0,0,0,0,0,0,0,0,0,0,0,0,0,0,
0,0,0,0,0,0,0,0,0,0,0,0,0,0,0,0,51,52,0,0,0,0,0,0,0,0,0,0,0,0,0,0,0,2147483693,0,45,0,0,33,34,35,0,0,0,0,0,0,0,0,0,0,0,0,0,0,0,0,0,0,0,0,0,0,0,
0,0,0,0,0,0,0,0,0,0,0,0,0,0,0,0,51,52,0,0,0,0,0,0,0,0,0,0,0,0,0,49,50,50,50,50,50,50,50,50,50,50,2147483697,0,0,0,0,0,0,0,0,0,0,0,0,0,0,0,0,0,0,0,0,0,
0,0,0,0,0,0,0,0,0,0,0,0,0,0,0,0,51,52,0,0,0,0,0,0,0,0,0,0,0,0,0,57,58,58,58,58,58,58,58,58,58,58,2147483705,0,0,0,0,0,0,0,0,0,0,0,0,0,0,0,0,0,0,0,0,0,
0,0,0,0,0,0,0,0,0,0,0,0,0,0,0,0,51,52,0,0,0,0,0,0,0,0,0,0,0,0,0,0,0,0,0,0,0,0,0,0,0,0,0,0,0,0,0,0,0,0,0,0,0,0,0,0,0,0,0,0,0,0,0,0,
0,0,0,0,0,0,0,0,0,0,0,0,0,60,61,62,51,52,38,0,0,0,0,0,0,60,61,62,63,0,38,0,0,0,0,0,0,0,0,0,0,0,0,0,0,0,0,0,0,0,0,0,0,0,0,0,0,0,0,0,0,0,0,0,
0,17,18,19,17,18,19,0,17,18,19,0,0,49,50,50,50,50,50,2147483697,0,0,0,0,0,49,50,50,50,50,50,2147483697,0,0,0,0,0,0,0,0,0,0,0,0,0,0,0,0,0,0,0,0,0,0,0,0,0,0,0,0,0,0,0,0,
0,25,26,27,25,26,27,0,25,26,27,0,0,57,58,58,58,58,58,2147483705,0,0,0,0,0,57,58,58,58,58,58,2147483705,0,0,0,0,0,0,0,0,0,0,0,0,0,0,0,17,18,19,17,18,19,17,18,19,17,18,19,0,0,0,0,0,
41,33,34,35,33,34,35,33,33,34,35,0,0,0,0,0,0,0,0,0,0,0,0,0,0,0,0,0,0,0,0,0,0,0,0,0,0,0,0,60,61,62,60,61,62,0,0,25,26,27,25,26,27,25,26,27,25,26,27,0,0,0,0,0,
49,50,50,50,50,50,50,50,50,50,50,2147483697,0,0,0,0,0,0,0,0,0,0,0,0,0,0,0,0,0,0,0,0,0,0,0,0,0,0,49,50,50,50,50,50,50,2147483697,0,33,34,35,33,34,35,33,34,35,33,34,35,0,0,0,17,18,
0,0,0,0,0,0,0,0,0,0,0,0,0,0,0,0,0,0,0,0,0,0,0,0,0,0,0,0,0,0,0,0,0,0,0,0,0,0,0,0,0,0,0,0,0,0,0,49,50,50,50,50,50,50,50,50,50,50,50,2147483697,0,0,25,26,
0,0,0,0,0,0,0,0,0,0,0,0,0,0,0,0,0,0,0,0,0,0,0,0,0,0,0,0,0,0,0,0,0,0,0,0,0,0,0,0,0,0,0,0,0,0,0,57,58,58,58,58,58,58,58,58,58,58,58,2147483705,38,0,33,34
</data>
 </layer>
 <objectgroup color="#ff5500" id="2" name="spawn">
  <properties>
   <property name="exportName" type="bool" value="true"/>
   <property name="exportPosition" type="bool" value="true"/>
   <property name="exportSize" type="bool" value="true"/>
  </properties>
  <object id="7" name="spawn_player" x="16" y="416" width="48" height="48">
   <properties>
    <property name="exportName" type="bool" value="true"/>
    <property name="exportPosition" type="bool" value="true"/>
    <property name="exportSize" type="bool" value="true"/>
   </properties>
  </object>
 </objectgroup>
 <objectgroup color="#0055ff" id="3" name="platform" class="Platform">
  <object id="10" x="0" y="464" width="192" height="16">
   <properties>
    <property name="exportName" type="bool" value="true"/>
    <property name="exportPosition" type="bool" value="true"/>
    <property name="exportSize" type="bool" value="true"/>
   </properties>
  </object>
  <object id="11" x="208" y="416" width="112" height="16">
   <properties>
    <property name="exportName" type="bool" value="true"/>
    <property name="exportPosition" type="bool" value="true"/>
    <property name="exportSize" type="bool" value="true"/>
   </properties>
  </object>
  <object id="12" x="400" y="416" width="112" height="16">
   <properties>
    <property name="exportName" type="bool" value="true"/>
    <property name="exportPosition" type="bool" value="true"/>
    <property name="exportSize" type="bool" value="true"/>
   </properties>
  </object>
  <object id="13" x="496" y="352" width="192" height="16">
   <properties>
    <property name="exportName" type="bool" value="true"/>
    <property name="exportPosition" type="bool" value="true"/>
    <property name="exportSize" type="bool" value="true"/>
   </properties>
  </object>
  <object id="14" x="224" y="288" width="144" height="16">
   <properties>
    <property name="exportName" type="bool" value="true"/>
    <property name="exportPosition" type="bool" value="true"/>
    <property name="exportSize" type="bool" value="true"/>
   </properties>
  </object>
  <object id="15" x="480" y="272" width="144" height="16">
   <properties>
    <property name="exportName" type="bool" value="true"/>
    <property name="exportPosition" type="bool" value="true"/>
    <property name="exportSize" type="bool" value="true"/>
   </properties>
  </object>
  <object id="16" x="608" y="464" width="128" height="16">
   <properties>
    <property name="exportName" type="bool" value="true"/>
    <property name="exportPosition" type="bool" value="true"/>
    <property name="exportSize" type="bool" value="true"/>
   </properties>
  </object>
  <object id="17" x="752" y="480" width="208" height="16">
   <properties>
    <property name="exportName" type="bool" value="true"/>
    <property name="exportPosition" type="bool" value="true"/>
    <property name="exportSize" type="bool" value="true"/>
   </properties>
  </object>
 </objectgroup>
</map>
