<?xml version="1.0" encoding="UTF-8"?>
<map version="1.10" tiledversion="1.12.2" orientation="orthogonal" renderorder="right-down" width="30" height="20" tilewidth="8" tileheight="8" infinite="0" nextlayerid="2" nextobjectid="1">
 <tileset firstgid="1" source="ts_jungle.tsx"/>
 <layer id="1" name="layer_1" width="30" height="20">
  <data encoding="csv">
0,0,0,0,0,0,0,0,0,0,0,0,0,0,0,0,0,0,0,0,0,0,0,0,0,0,0,0,0,0,
0,0,0,0,0,0,0,0,0,0,0,0,0,0,0,0,0,0,0,0,0,0,0,0,0,0,0,0,0,0,
0,0,0,0,0,0,0,0,0,0,0,0,0,0,0,0,0,0,0,0,0,0,0,0,0,0,0,0,0,0,
0,0,0,0,0,0,0,0,0,0,0,0,0,0,0,0,0,0,0,0,0,0,0,0,0,0,0,0,0,0,
0,0,0,0,0,0,0,0,0,0,0,0,0,0,0,0,0,0,0,0,0,0,0,0,0,0,0,0,0,0,
0,0,0,0,0,0,0,0,0,0,0,0,0,0,0,0,0,0,0,0,0,0,0,0,0,0,0,0,0,0,
0,0,0,0,0,0,0,0,0,0,0,0,0,0,0,0,0,0,0,0,0,0,0,0,0,0,0,0,0,0,
0,0,0,0,0,0,0,0,0,0,0,0,0,0,0,0,0,0,0,0,0,0,0,0,0,0,0,0,0,0,
0,0,0,0,0,0,0,0,0,0,0,0,0,0,0,0,0,0,0,0,0,0,0,0,0,0,0,0,0,0,
0,0,0,0,0,0,0,0,0,0,0,0,0,0,0,0,0,0,0,0,0,0,0,0,0,846,847,0,0,0,
0,0,0,0,0,0,0,0,0,846,847,847,0,0,0,0,0,0,0,0,0,0,0,0,0,878,879,0,0,0,
0,0,0,0,0,0,0,0,0,878,879,879,0,0,0,0,0,0,0,0,0,0,0,0,809,810,810,810,2147484457,0,
0,0,0,0,0,0,0,0,0,905,906,907,0,0,0,0,0,804,805,806,0,0,0,0,0,785,786,0,0,0,
0,0,0,0,0,0,0,0,0,937,906,939,0,0,0,0,0,836,837,838,0,0,0,0,0,785,786,0,0,0,
0,0,0,0,0,0,0,0,0,905,906,907,0,0,0,0,0,868,869,870,0,0,0,0,0,785,786,0,0,0,
0,0,804,805,806,0,804,805,806,937,906,939,0,0,897,898,899,900,901,902,903,0,0,0,0,785,786,0,0,0,
0,0,836,837,838,0,836,837,838,905,906,907,0,0,929,930,931,932,933,934,935,0,0,0,0,785,786,0,0,0,
0,0,868,869,870,0,868,869,870,937,938,939,0,0,0,962,963,964,965,966,967,0,0,0,0,785,786,0,0,0,
0,897,899,900,899,900,899,900,899,900,899,902,903,0,0,0,0,0,0,0,0,0,897,898,899,900,901,900,901,902,
0,929,931,932,931,932,931,932,931,932,931,934,935,0,0,0,0,0,0,0,0,0,929,930,931,932,933,932,933,934
</data>
 </layer>
</map>
